X: 2
T: As Fadas De Estraño Nome
R: jig
M: 6/8
L: 1/8
K: Dmaj
|:DFA d2 d|BdA BAF|DEF ABA|E2A FED|
DFA d2d|BdA BAF|DEF ABA|EAF D3:|
|:dAd dAd|F2E FED|Add BAB|F2A B3|
Add Bdd|Add FEF|D3 A2B|F3 D3:|
|:FGF Fd=c|BAG AB=c|FGF Fd=c|BAGA3|
FGA FDD|GEE FDD|=cBA AGF|E2FD3:|

